!!!OTL: WACHET AUF WACHET AUF
!!!ARE: Europa, Mitteleuropa, Deutschland, Hessen, Wetterau
!!!SCT: E1603B
!!!YEM: Copyright 1995, estate of Helmut Schaffrath.
**kern
*ICvox
*Ivox
*M4/4
*k[b-]
*F:
{8f
8a
=1
4cc
8cc
8cc
8cc
8dd
8cc
8b-
=2
4cc
8.a
16a
4a}
{4cc
=3
4g
4a
8dd
8cc
8b-
8a
=4
4a
4g
4r}
{4cc
=5
4dd
4ee
4ff
8ee
8dd
=6
4.cc
8b-
4a}
{4cc
=7
4.dd
8cc
4b-
4a
=8
4a
4g
4r}
{4cc
=9
4dd
4ee
4ff
8ee
8dd
=10
4.cc
8b-
4a}
{4cc
=11
4.dd
8cc
4b-
4a
=12
4a
4g
4r}
==
!!!AGN: Staende -, Handwerker -, Gesellen - Lied, Wanderschaft
!!!ONB: ESAC (Essen Associative Code) Database: ERK3
!!!AMT: simple quadruple
!!!AIN: vox
!!!EED: Helmut Schaffrath
!!!EEV: 1.0
*-
